X: 21
T: Heliotrope Bouquet
%%abc-version 2.0
%%abcx-abcm2ps-target-version 5.9.1 (29 Sep 2008)
%%abc-creator hum2abc beta
%%abcx-conversion-date 2021/07/20 09:00:57
%%abc-copyright Copyright 2004 by Craig Stuart Sapp
%%abc-edited-by Craig Stuart Sapp
%%abc-edited-by Craig Stuart Sapp
%%abcx-initial-encoding-date 2004/06/08/
%%humdrum-veritas 4091635834
%%humdrum-veritas-data 2460382035
%%removed 0's from note length
%%linebreak <none>
%%barnumbers 0
L: 1/8
M: 2/4
N: Derived from heliotrope.krn
Q: "Slow March Tempo." 1/4=72
%%staves {1 2}
V: 1 clef=treble
V: 2 clef=bass
K: G
[V:1] [K:clef=treble][M:2/4]D/E/F/G/- G/B/A/G/ | 
[V:2] [K:clef=bass][M:2/4]D,/E,/F,/G,/- G,/B,/A,/G,/ | 
[V:1] d/c/B/A/- A/B/c/d/ | 
[V:2] D/C/B,/A,/- A,/B,/C/D/ | 
[V:1] c/EF/ GE | 
[V:2] C/E,F,/ G,E, | 
[V:1] D z !accent!fe & x2[^c2G2] ||  
[V:2] D, z!accent![_B,2_B,,2] ||  
[V:1] [=c/=C/][d/D/][e/E/][B/C/]- B/F/A & E>F- [FC][FC] | 
[V:2] [E,A,,]>D,- D,[D,D,,] | 
[V:1] G/B/d/f/- f/c/e & B,>[^cG]-[c2G2] | 
[V:2] [D,G,,][B,/B,,/][_B,/_B,,/]-[B,2B,,2] | 
[V:1] [=c/=C/][d/D/][e/E/][B/C/]- B/F/A & E>F- [FC][FC] | 
[V:2] [E,A,,]>D,- D,[D,D,,] | 
[V:1] G/B/d/f/- f/c/e & B,>[^cG]-[c2G2] | 
[V:2] [D,G,,][B,/B,,/][_B,/_B,,/]-[B,2B,,2] | 
[V:1] [=c/=C/][d/D/][e/E/][B/C/]- B/F/A & E>F- [FC][FC] | 
[V:2] [E,A,,]>[D,D,,]- [D,D,,][^D,^D,,] | 
[V:1] G/A/B/d/- d/d/e & [EB,]>[BFD]- [BFD][dG] | 
[V:2] [E,E,,]>[B,B,,]- [B,B,,][_B,_B,,] | 
[V:1] [f/F/][g/G/][a/A/]f/- f/d/e & [dF]>[d^G]- [dG][^c=G] | 
[V:2] [A,A,,]>[B,,B,,,]- [B,,B,,,][A,,A,,,] | 
[V:1] [d2A2F2]!accent!fe & x2[^c2G2] | 
[V:2] {/D,}D,,2!accent![_B,2_B,,2] | 
[V:1] [=c/=C/][d/D/][e/E/][B/C/]- B/F/A & E>F- [FC][FC] | 
[V:2] [E,A,,]>D,- D,[D,D,,] | 
[V:1] G/B/d/f/- f/c/e & B,>[^cG]-[c2G2] | 
[V:2] [D,G,,][B,/B,,/][_B,/_B,,/]-[B,2B,,2] | 
[V:1] [=c/=C/][d/D/][e/E/][B/C/]- B/F/A & E>F- [FC][FC] | 
[V:2] [E,A,,]>D,- D,[D,D,,] | 
[V:1] Gd/B/ d/B/d/B/ & B,2G2 | 
[V:2] [D,2G,,2][G,2G,,2] | 
[V:1] dd/B/ d/gB/ & GGG2 | 
[V:2] [=F,G,,][F,G,,] [F,G,,][F,G,,] | 
[V:1] cc/B/ c/G/A/^A/ & GGG2 | 
[V:2] [E,G,,][E,G,,] [_E,G,,][E,G,,] | 
[V:1] B/dB/- B/G/A & [GD]>[G^C]- [GC][F=C] | 
[V:2] [D,D,,][^D,/^D,,/][E,/E,,/]- [E,E,,][=D,=D,,] | 
[V:1] [G2B,2]!accent![b2^e2d2] ]|:  
[V:2] [G,2G,,2]!accent![^G,2^G,,2] ]|:  
[V:1] bb/a/ b/d'a/ & [fc][fc]- [f/c/][f3/d3/] | 
[V:2] [A,A,,][CF,D,] [D,D,,][CF,D,] | 
[V:1] b/a/b/d'/- d'-d'/(3d//^d//e// & [fc]>[fd]- [fd]-[f/d/] z/ | 
[V:2] A,[CF,]- [CF,]-[C/F,/] z/ & [A,2A,,2][D,D,,]-[D,/D,,/](3D,//^D,//E,// | 
[V:1] ge/d/ e/gd/ & B[BG]- [B/G/][B3/G3/] | 
[V:2] [G,G,,][B,G,D,] [D,D,,][B,G,D,] | 
[V:1] [g/B/G/][f/B/F/][g/B/G/][e/B/G/]- [e/B/G/][d/D/][e/E/][^e/^E/] | 
[V:2] [G,G,,][B,G,D,] [D,D,,][G,/G,,/][^G,/^G,,/] | 
[V:1] [fcF][f/c/F/]d/ [f/c/F/][acA]e/ | 
[V:2] [A,A,,][CA,D,] [D,D,,][CF,D,] | 
[V:1] [f/c/F/]e/[f/c/F/][e/c/F/]- [ecF]-[e/c/F/](3d//e//f// | 
[V:2] [A,A,,][CA,D,] [D,D,,]-[D,/D,,/](3D,//E,//F,// | 
[V:1] !accent![gB][dB][^c^A][=c=A] | 
[V:2] !accent!G, =FE_E | 
[V:1] [BG][_BG][A^F]!accent![=B^ED] | 
[V:2] D^C=C !accent![^G,^G,,] | 
[V:1] z/ a/b/a/ b/d'a/ & z [fc]- [f/c/][f3/d3/] | 
[V:2] [A,A,,][CF,D,] [D,D,,][CF,D,] | 
[V:1] b/a/b/d'/- d'-d'/(3d//^d//e// & [fc]>[fd]- [fd]-[f/d/] z/ | 
[V:2] A,[CF,]- [CF,]-[C/F,/] z/ & [A,2A,,2][D,D,,]-[D,/D,,/](3D,//^D,//E,// | 
[V:1] ge/d/ e/gd/ & B[BG]- [B/G/][B3/G3/] | 
[V:2] [G,G,,][B,G,D,] [D,D,,][B,G,D,] | 
[V:1] [g/B/G/][f/B/F/][g/B/G/][e/B/G/]- [eBG](3d/^c/d/ | 
[V:2] [G,G,,][B,G,D,] [G,G,,][=F,=F,,] | 
[V:1] e[b^gd] =a/e'3/ & x2[g2^c2] | 
[V:2] [E,E,,][D^G,E,] [A,A,,][^CA,=G,E,] | 
[V:1] [d=c][afd] g/d'3/ & x2d2 | 
[V:2] [DA,F,D,][=C=C,] [B,B,,][B,G,D,] | 
[V:1] a<e' a/d'3/ & [g2^c2][f2=c2] |[1 
[V:2] [A,A,,][^CA,G,E,] [D,D,,][=CA,F,D,] | 
[V:1] [g2d2B2]!accent![b2^e2d2] :|][2 
[V:2] [G,2G,,2]!accent![^G,2^G,,2] :|]  
[V:1] [g2d2B2]!accent!fe & x2[^c2G2] | 
[V:2] [G,2G,,2]!accent![_B,2_B,,2] | 
[V:1] [=c/=C/][d/D/][e/E/][B/C/]- B/F/A & E>F- [FC][FC] | 
[V:2] [E,A,,]>D,- D,[D,D,,] | 
[V:1] G/B/d/f/- f/c/e & B,>[^cG]-[c2G2] | 
[V:2] [D,G,,][B,/B,,/][_B,/_B,,/]-[B,2B,,2] | 
[V:1] [=c/=C/][d/D/][e/E/][B/C/]- B/F/A & E>F- [FC][FC] | 
[V:2] [E,A,,]>D,- D,[D,D,,] | 
[V:1] G/B/d/f/- f/c/e & B,>[^cG]-[c2G2] | 
[V:2] [D,G,,][B,/B,,/][_B,/_B,,/]-[B,2B,,2] | 
[V:1] [=c/=C/][d/D/][e/E/][B/C/]- B/F/A & E>F- [FC][FC] | 
[V:2] [E,A,,]>[D,D,,]- [D,D,,][^D,^D,,] | 
[V:1] G/A/B/d/- d/d/e & [EB,]>[BFD]- [BFD][dG] | 
[V:2] [E,E,,]>[B,B,,]- [B,B,,][_B,_B,,] | 
[V:1] [f/F/][g/G/][a/A/]f/- f/d/e & [dF]>[d^G]- [dG][^c=G] | 
[V:2] [A,A,,]>[B,,B,,,]- [B,,B,,,][A,,A,,,] | 
[V:1] [d2A2F2]!accent!fe & x2[^c2G2] | 
[V:2] D,,2!accent![_B,2_B,,2] | 
[V:1] [=c/=C/][d/D/][e/E/][B/C/]- B/F/A & E>F- [FC][FC] | 
[V:2] [E,A,,]>D,- D,[D,D,,] | 
[V:1] G/B/d/f/- f/c/e & B,>[^cG]-[c2G2] | 
[V:2] [D,G,,][B,/B,,/][_B,/_B,,/]-[B,2B,,2] | 
[V:1] [=c/=C/][d/D/][e/E/][B/C/]- B/F/A & E>F- [FC][FC] | 
[V:2] [E,A,,]>D,- D,[D,D,,] | 
[V:1] Gd/B/ d/B/d/B/ & B,2G2 | 
[V:2] [D,2G,,2][G,2G,,2] | 
[V:1] dd/B/ d/gB/ & GGG2 | 
[V:2] [=F,G,,][F,G,,] [F,G,,][F,G,,] | 
[V:1] cc/B/ c/G/A/^A/ & GGG2 | 
[V:2] [E,G,,][E,G,,] [_E,G,,][E,G,,] | 
[V:1] B/dB/- B/G/A & [GD]>[G^C]- [GC][F=C] | 
[V:2] [D,D,,][^D,/^D,,/][E,/E,,/]- [E,E,,][=D,=D,,] | 
[V:1] [GB,]G/A/ B/c/d/^d/ ]|:  
[V:2] [G,G,,] z[=F2B,2G,2] ]|:  
[V:1]  [K:C] e/^d/e/G/ A/c=d/ & G2A3/_A/ | 
[V:2]  [K:C] [C,C,,][ECG,] [F,F,,][FC_A,] | 
[V:1] [ecG][a/e/c/A/][g/e/c/G/]- [g/e/c/G/][e'/e/][d'/d/]f/ | 
[V:2] [C,C,,][ECG,] [G,,G,,,][FB,G,] | 
[V:1] e/^d/e/G/ A/c=d/ & G2A3/_A/ | 
[V:2] [C,C,,][ECG,] [F,F,,][^F,^F,,] | 
[V:1] [e4c4G4] | 
[V:2] [G,G,,]!accent![CC,]!accent![B,B,,]!accent![_B,_B,,] | 
[V:1] f/c'/d/c/- c/d/f/c'/ | 
[V:2] A,[FCA,] _A,[CA,] & [A,2A,,2][_A,2_A,,2] | 
[V:1] e/g/d/c/- x/ c3/ & x2c/[g/G/][a/A/][^a/^A/] | 
[V:2] [G,G,,][ECG,] [E,E,,][_E,_E,,] | 
[V:1] g> x b/g/a & [b/B/][c'/c/][d'/d/][b/g/^c/]- [gc][^f=c] | 
[V:2] [D,D,,]>[E,E,,]- [E,E,,][D,D,,] | 
[V:1] [gdB]G/A/ B/c/d/^d/ | 
[V:2] [G,G,,][F,F,,][E,E,,][D,D,,] | 
[V:1] e/^d/e/G/ A/c=d/ & G2A3/_A/ | 
[V:2] [C,C,,][ECG,] [F,F,,][FC_A,] | 
[V:1] [ecG][a/e/c/A/][g/e/c/G/]- [g/e/c/G/]c/e | 
[V:2] [C,C,,][ECG,] [G,,G,,,][ECG,] | 
[V:1] ^d/e/^g/[c'/g/=d/]- [c'/g/d/]e/[bgd] | 
[V:2] [E,,E,,,][ED^G,] [E,,E,,,][EDG,] | 
[V:1] [aec][b/B/][c'/c/]- [c'/c/]a/e/c/ | 
[V:2] [A,,A,,,][ECA,] [E,,E,,,][ECA,] | 
[V:1] c'/a/^f/^d/ c/A_A/ | 
[V:2] ^F,,/A,,/C,/^D,/ ^F,/A,_A,/ | 
[V:1] GA/c/- c/d/e | 
[V:2] [G,G,,][ECG,] [A,,A,,,][ECA,] | 
[V:1] [A2^F2][e2G2=F2] |[1 
[V:2] [D,D,,][CA,^F,] [G,G,,][B,G,=F,] | 
[V:1] [cGE]G/A/ B/c/d/^d/ :|][2 
[V:2] [CG,E,C,] z[F2B,2G,2] :|]  
[V:1] [c2G2E2]-[cGE] z ]|: 
[V:2] [CG,E,C,]!accent![^D,/^D,,/]!accent![E,/E,,/] !accent![G,/G,,/]!accent![C/C,/]!accent![B,/B,,/]!accent![A,/G,,/] ]|:  
[V:1] G/B/d/g/- g/a/g/f/ & G>B-B2 | 
[V:2] [G,G,,][F,F,,][E,E,,][D,D,,] | 
[V:1] eg/c'<- c'^A/ & c>[ec]- [ec] z | 
[V:2] [C,C,,][ECG,] [E,E,,][ECG,] | 
[V:1] B/g^A/ B/gB/ | 
[V:2] [G,,G,,,][FDB,G,] [D,D,,][^D,^D,,] | 
[V:1] c/d/^d/e/-e2 | 
[V:2] [E,E,,][ECG,] !accent![G,/G,,/]!accent![C/C,/]!accent![B,/B,,/]!accent![A,/A,,/] | 
[V:1] G/B/d/g/- g/a/g/f/ & G>B-B2 | 
[V:2] [G,G,,][F,F,,][E,E,,][D,D,,] | 
[V:1] eg/c'/- c'/a/e/c/ & c>[ec]- [ec] z | 
[V:2] [C,C,,][ECG,] [A,,A,,,][ECA,] | 
[V:1] B/e/g/^f/- fb & B>[^dB]- [dB][dB] | 
[V:2] [B,,B,,,][EB,G,] [B,,B,,,][^DB,A,] | 
[V:1] [beB]g/B/ e/^c/^A/G/- | 
[V:2] [E,E,,][EB,G,] [^C,^C,,][^A,G,E,] | 
[V:1] G/B/d/g/- g/a/g/f/ & G>B-B2 | 
[V:2] [D,D,,][F,F,,][E,E,,][D,D,,] | 
[V:1] eg/c'<- c'^A/ & c>[ec]- [ec] z | 
[V:2] [C,C,,][ECG,] [E,E,,][ECG,] | 
[V:1] B/g^A/ B/gB/ | 
[V:2] [G,,G,,,][FDB,G,] [D,D,,][^D,^D,,] | 
[V:1] c/B/A/G<- G^G/ | 
[V:2] [E,E,,][ECG,] C,[ECG,] | 
[V:1] A/a/f/c/ G/[gec]^G/ | 
[V:2] C4 & F,^D,E,C, | 
[V:1] A/a/f/c/ G/[gec]G/ | 
[V:2] C4 & F,^D,E,[E,E,,] | 
[V:1] [A2^F2][e2G2=F2] |[1 
[V:2] [D,D,,][CA,^F,] [G,G,,][B,G,=F,] | 
[V:1] [c2G2E2]-[cGE] z :|][2 
[V:2] [CG,E,C,][^D,/^D,,/][E,/E,,/] [G,/G,,/][C/C,/][B,/B,,/][A,/A,,/] :|]  
[V:1] [c2G2E2]!accent![c'gec] z |]  
[V:2] [CG,E,C,]{/^F,,}G,, [C,C,,] z |]  


